X:575
T:Keepsake., The
T:cui.mnea.can., an
N:"Gracefully." "Collected from F. O'Neill."
B:O'Neill's 575
Z:Transcribed by J.B. Walsh, walsh@math.ubc.ca
M:6/8
L:1/8
<START_ANN> %Q:80 <END_ANN>
K:G
B/c/|de.d de.c|.dge dBG|ceg ed.B|cBA.A A2 B/c/|
de.d de.c|dge dBG|gB.e dBG|BAG.G G2:|
d|gag gfg|afd d2 e/f/|gab bag|afd d2 e/f/|
gag fgf|efe d2 e/f/|gBe dBG|BAG.G G2:|
